/* XPM */
static char * locomotion_contact[] = {
"32 32 13 1",
". c #EE00EE",
"O c #220022",
"H c #EEAACC",
"L c #EE88AA",
"B c #CC6688",
"S c #884466",
"C c #CC4466",
"c c #AA2244",
"R c #EE4444",
"F c #CC2222",
"f c #660022",
"E c #000044",
"W c #EEEEEE",
"................................",
"...........OOOOOOOOOO...........",
".........OOOLLLLLLLBOOO.........",
".......OOOLLLLLLLLLBBBOOO.......",
"......OOHHHHHHLLLLLBBBBBOO......",
".....OOHHHHHHHLLLLLBBBBBBOO.....",
"....OOLHHHHHHHLLLLLBBBBBBBOO....",
"...OOLLLLLLLLLLLLLLBBBBBBBBOO...",
"..OOLLLLLLLLLLLLLLLBBBBBBBBBOO..",
"..OLLLLLLLLLLLLLLLLBBBBBBBBBBO..",
"..OLLLLLLLLLLLWELLLLWEBBBBBBBO..",
".OOBBOBBBBBBBEEBBBBBEEBBBBBOOOO.",
"OOBBBOBBBBBBBEEBBBBBEEBBBBBOOOO.",
"BBBBBOBBBBBBBEEBBBBBEEBBBBBOOOO.",
"OOBBBOBBBBBBBEEBBBBBEEBBBBBOOOO.",
".OBBBOBBBBBBBBBBBBBBBBBBBBOOOO..",
".OOBBBBBBBBBBBBBBBBBBBBBBBOOOO..",
"..OOBBBCCBBBBBBBBBBBBBBccBBOO...",
"...OOSSSCSSSSSSSSSSSSScSSSSOO...",
"....OOSSSSSSSSOOOOSSSSSSSSSOO...",
".....OOSSSSSSSSOOSSSSSSSSSOO....",
"......OOSSSSSSSSSSSSSSSSSOO.....",
".......OOSSSSSSSSSSSSSSSOO......",
"........OOSSSSSSSSSSSSSOO.......",
".........OSOOOOOOOOSSSOO........",
"..........OSOOOOOOOSSO..........",
"....OOOOOOOFO......OFFOOOOOO....",
"...OOFRRFFFFOO....OOFRRFFFFOO...",
"...OOFFFFFFFFO....OOFFFFFFFFOO..",
"....OOffffffOO....OOffffffOO....",
".....OOOOOOOO......OOOOOOOO.....",
"................................"
};
