/* XPM */
static char * airborne_pose[] = {
"32 32 13 1",
". c #EE00EE",
"O c #220022",
"H c #EEAACC",
"L c #EE88AA",
"B c #CC6688",
"S c #884466",
"C c #CC4466",
"c c #AA2244",
"R c #EE4444",
"F c #CC2222",
"f c #660022",
"E c #000044",
"W c #EEEEEE",
"................................",
"...........OOOOOOOOOO...........",
".........OOOLLLLLLLBOOO.........",
".......OOOLLLLLLLLLBBBOOO.......",
"......OOHHHHHHLLLLLBBBBBOO......",
".....OOHHHHHHHLLLLLBBBBBBOO.....",
"....OOLHHHHHHHLLLLLBBBBBBBOO....",
"...OOLLLLLLLLLLLLLLBBBBBBBBOO...",
"..OOLLLLLLLLLLLLLLLBBBBBBBBBOO..",
"..OLLLLLLLLLLLLLLLLBBBBBBBBBBO..",
"..OLLLLLLLLLLLWELLLLWEBBBBBBBO..",
".OOBBOBBBBBBBEEBBBBBEEBBBBBOBBO.",
"OOBBBOBBBBBBBEEBBBBBEEBBBBBOBBBO",
"BBBBBOBBBBBBBEEBBBBBEEBBBBBBBBB.",
"OOBBBOBBBBBBBEEBBBBBEEBBBBBOBBBO",
".OBBBOBBBBBBBBBBBBBBBBBBBBOBBBO.",
".OOBBBBBBBBBBBBBBBBBBBBBBBBBOO..",
"..OOBBBCCBBBBBBBBBBBBBBccBBBBOO.",
"...OOSSSCSSSSSSSSSSSSSScSSSSOO..",
"....OOSSSSSSSSSOOOOOSSSSSSSOO...",
".....OOSSSSSSSSOOSSSSSSSSSOO....",
"......OOSSSSSSSSSSSSSSSSSOO.....",
".......OOSSSSSSSSSSSSSSSOO......",
"........OOSSSSSSSSSSSSSOO.......",
"....OOOOOOOFO......OFFOOOOOO....",
"...OOFRRFFFFOO....OOFRRFFFFOO...",
"...OOFFFFFFFFO....OFFFFFFFFOO...",
"....OOffffffOO....OOffffffOO....",
"................................",
"................................",
"................................",
"................................"
};
