/* XPM */
static char * idle_basic[] = {
"32 32 10 1",
". c #EE00EE",
"O c #220022",
"L c #EE88AA",
"B c #CC6688",
"S c #884466",
"C c #CC4466",
"F c #CC2222",
"f c #660022",
"E c #000044",
"W c #EEEEEE",
"................................",
"...........OOOOOOOOOO...........",
".........OOOLLLLLLLBOOO.........",
".......OOOLLLLLLLLLBBBOOO.......",
"......OOLLLLLLLLLLLBBBBBOO......",
".....OOLLLLLLLLLLLLBBBBBBOO.....",
"....OOLLLLLLLLLLLLLBBBBBBBOO....",
"...OOLLLLLLLLLLLLLLBBBBBBBBOO...",
"..OOLLLLLLLLLLLLLLLBBBBBBBBBOO..",
"..OLLLLLLLLLLLLLLLLBBBBBBBBBBO..",
"..OLLLLLLLWELLLLLLLWEBBBBBBBBO..",
".OOBBOBBBBEEBBBBBBBEEBBBBBOBBOO.",
"OOBBBOBBBBEEBBBBBBBEEBBBBBOBBBOO",
"BBBBBOBBBBEEBBBBBBBEEBBBBBOBBBBB",
"OOBBBOBBBBEEBBBBBBBEEBBBBBOBBBBB",
".OBBBOBBBBBBBBBBBBBBBBBBBBOBBBOO",
".OOBBBBBBBBBBBBBBBBBBBBBBBBBBBO.",
"..OOBBBCCBBBBBBBBBBBBBBCCBBBBOO.",
"...OOSSSCSSSSSSSSSSSSSSCSSSSOO..",
"....OOSSSSSSSSOOOOSSSSSSSSSOO...",
".....OOSSSSSSSSOOSSSSSSSSSOO....",
"......OOSSSSSSSSSSSSSSSSSOO.....",
".......OOSSSSSSSSSSSSSSSOO......",
"........OOSSSSSSSSSSSSSOO.......",
".........OOSSSSSSSSSSSOO........",
"..........OSOOOOOOOOSSO.........",
"....OOOOOOOFO......OFFOOOOOO....",
"...OOFFFFFFFOO....OOFFFFFFFOO...",
"...OOFFFFFFFFO....OFFFFFFFFOO...",
"....OOffffffOO....OOffffffOO....",
".....OOOOOOOO......OOOOOOOO.....",
"................................"
};
