/* XPM */
static char *kairo_vant_native_grid_authoring_v01[] = {
"32 40 13 1",
". c None",
"K c #000000",
"H c #222244",
"B c #002266",
"N c #2244AA",
"C c #00AAEE",
"S c #AA4400",
"A c #EEAA44",
"G c #EECC00",
"W c #EEEEEE",
"M c #222222",
"Y c #2244CC",
"R c #0066AA",
"................................",
"................................",
"...............HH...............",
"..............HHHH..............",
".............HHHHHH.............",
"............HHHHHHHH............",
"............HKKHHKKH............",
"............HKWKKWKH............",
"............HKAAKKAH............",
"............HKASSKAH............",
".............HKKKKH.............",
".......HKBNNNNBKKBNNNNBKH.......",
"......HKBBCCNNNBBNNNCCBBKH......",
".....HKSSAAKBNNNNNNBKAASSKH.....",
"....HKSSSAAKBNNNNNNBKAASSSKH....",
"....HKKSSAAKBNNNNNNBKAASSKKH....",
".....HKBBCNNNNNBBNNNNNCBBKH.....",
".....HKBBNNNNNNBBNNNNNNBBKH.....",
"......KBBNMMMMNBBNMMMMNBBK......",
".....HKBBNMMMMNBBNMMMMNBBKH.....",
".....HKBBNMMMMNBBNMMMMNBBKH.....",
"....HKNBBNMMMMNBBNMMMMNBBNKH....",
"....HKBBBNMMMNBBBBNMMNBBBBKH....",
"....HKBBBNMYYYBBBBYYYNNBBBKH....",
".....KBBBNYYYYNBBNYYYYNBBBK.....",
"......KBBNNYYNNBBNNYYNNBBK......",
"......KBBNBNN......NNBNBBK......",
".......HKBNN........NNBKH.......",
".......HKBNN........NNBKH.......",
".......HKBNN........NNBKH.......",
"......HKKBNN........NNBKKH......",
"......HKKBNN........NNBKKH......",
"......HKKBNN........NNBKKH......",
"......HKKBNN........NNBKKH......",
"......HKKBNN........NNBKKH......",
".....HKGGYYG........GYYGGKH.....",
"....HKGGGYYG........GYYGGGKH....",
"....HKGGGYYY........YYYGGGKH....",
"....HKGGGYYYYYGGGGYYYYYGGGKH....",
"....HKKGGYYYYYGGGGYYYYYGGKKH...."
};
